svg/Pictogram/pictograms-nps-misc-camera.svg

<svg xmlns="http://www.w3.org/2000/svg" viewBox="0 0 256 256"><path d="m0 0c-.541 0-.982-.44-.982-.981v-7.529c0-.541.441-.98.982-.98h7.527c.541 0 .981.439.981.98v7.529c0 .541-.44.981-.981.981h-7.527" fill="#fff" transform="matrix(25.8795 0 0-25.8795 30.59 5.181)"/><path d="m119.04 66.54h17.443v-8.437h-17.443v8.437"/><path d="m0 0c0-.353-.287-.64-.641-.64h-6.611c-.353 0-.639.287-.639.64v2.596h3.077c-.1-.217-.157-.455-.157-.708 0-.951.772-1.723 1.723-1.723.951 0 1.723.772 1.723 1.723 0 .253-.059.491-.157.707h1.684l-.002-2.595m-2.146 1.888c0-.609-.495-1.102-1.102-1.102-.609 0-1.104.493-1.104 1.102 0 .208.061.4.163.566.029.049.062.094.099.138.201.241.502.398.842.398.34 0 .641-.158.842-.4.037-.043.07-.088.097-.136.102-.166.163-.358.163-.566m-5.106 2.466h6.611c.354 0 .641-.287.641-.64v-.951l-1.773.002c-.301.504-.846.845-1.475.845-.629 0-1.172-.339-1.475-.841l-3.166.002-.002.943c0 .353.286.64.639.64m.432.302h.588l.048-.212h-.705l.069.212zm1.918.357h1.902l.359-.575h-2.654l.393.575m3.189-.243h.783l.127-.328h-1.049l.139.328m1.531 2.357h-7.527c-.652 0-1.182-.529-1.182-1.182v-7.528c0-.652.53-1.182 1.182-1.182h7.527c.653 0 1.182.53 1.182 1.182v7.528c0 .653-.529 1.182-1.182 1.182" transform="matrix(25.8795 0 0-25.8795 230.09 184.44)"/></svg>

<?xml version="1.0" encoding="UTF-8" standalone="no"?>
<!-- Created with Inkscape (http://www.inkscape.org/) -->
<svg
   xmlns:dc="http://purl.org/dc/elements/1.1/"
   xmlns:cc="http://creativecommons.org/ns#"
   xmlns:rdf="http://www.w3.org/1999/02/22-rdf-syntax-ns#"
   xmlns:svg="http://www.w3.org/2000/svg"
   xmlns="http://www.w3.org/2000/svg"
   xmlns:sodipodi="http://sodipodi.sourceforge.net/DTD/sodipodi-0.dtd"
   xmlns:inkscape="http://www.inkscape.org/namespaces/inkscape"
   width="256"
   height="256"
   id="svg8302"
   sodipodi:version="0.32"
   inkscape:version="0.46"
   version="1.0"
   sodipodi:docname="pictograms-nps-misc-camera-2.svg"
   inkscape:output_extension="org.inkscape.output.svg.inkscape">
  <defs
     id="defs8304">
    <inkscape:perspective
       sodipodi:type="inkscape:persp3d"
       inkscape:vp_x="0 : 526.18109 : 1"
       inkscape:vp_y="0 : 1000 : 0"
       inkscape:vp_z="744.09448 : 526.18109 : 1"
       inkscape:persp3d-origin="372.04724 : 350.78739 : 1"
       id="perspective8310" />
  </defs>
  <sodipodi:namedview
     id="base"
     pagecolor="#ffffff"
     bordercolor="#666666"
     borderopacity="1.0"
     gridtolerance="10000"
     guidetolerance="10"
     objecttolerance="10"
     inkscape:pageopacity="0.0"
     inkscape:pageshadow="2"
     inkscape:zoom="0.7"
     inkscape:cx="61.634556"
     inkscape:cy="136.73676"
     inkscape:document-units="px"
     inkscape:current-layer="layer1"
     showgrid="false"
     inkscape:window-width="738"
     inkscape:window-height="674"
     inkscape:window-x="0"
     inkscape:window-y="198" />
  <metadata
     id="metadata8307">
    <rdf:RDF>
      <cc:Work
         rdf:about="">
        <dc:format>image/svg+xml</dc:format>
        <dc:type
           rdf:resource="http://purl.org/dc/dcmitype/StillImage" />
      </cc:Work>
    </rdf:RDF>
  </metadata>
  <g
     inkscape:label="Layer 1"
     inkscape:groupmode="layer"
     id="layer1">
    <g
       id="g3120"
       transform="matrix(25.879499,0,0,-25.879499,30.589569,5.1810756)">
      <path
         d="M 0,0 C -0.541,0 -0.982,-0.44 -0.982,-0.981 L -0.982,-8.51 C -0.982,-9.051 -0.541,-9.49 0,-9.49 L 7.527,-9.49 C 8.068,-9.49 8.508,-9.051 8.508,-8.51 L 8.508,-0.981 C 8.508,-0.44 8.068,0 7.527,0 L 0,0 z"
         style="fill:#ffffff;fill-opacity:1;fill-rule:nonzero;stroke:none"
         id="path3122" />
    </g>
    <path
       d="M 119.03514,66.543851 L 136.47792,66.543851 L 136.47792,58.107135 L 119.03514,58.107135 L 119.03514,66.543851 z"
       style="fill:#000000;fill-opacity:1;fill-rule:nonzero;stroke:none"
       id="path3124" />
    <g
       id="g3126"
       transform="matrix(25.879499,0,0,-25.879499,230.09462,184.44319)">
      <path
         d="M 0,0 C 0,-0.353 -0.287,-0.64 -0.641,-0.64 L -7.252,-0.64 C -7.605,-0.64 -7.891,-0.353 -7.891,0 L -7.891,2.596 L -4.814,2.596 C -4.914,2.379 -4.971,2.141 -4.971,1.888 C -4.971,0.937 -4.199,0.165 -3.248,0.165 C -2.297,0.165 -1.525,0.937 -1.525,1.888 C -1.525,2.141 -1.584,2.379 -1.682,2.595 L 0.002,2.595 L 0,0 z M -2.146,1.888 C -2.146,1.279 -2.641,0.786 -3.248,0.786 C -3.857,0.786 -4.352,1.279 -4.352,1.888 C -4.352,2.096 -4.291,2.288 -4.189,2.454 C -4.16,2.503 -4.127,2.548 -4.09,2.592 C -3.889,2.833 -3.588,2.99 -3.248,2.99 C -2.908,2.99 -2.607,2.832 -2.406,2.59 C -2.369,2.547 -2.336,2.502 -2.309,2.454 C -2.207,2.288 -2.146,2.096 -2.146,1.888 M -7.252,4.354 L -0.641,4.354 C -0.287,4.354 0,4.067 0,3.714 L 0,2.763 L -1.773,2.765 C -2.074,3.269 -2.619,3.61 -3.248,3.61 C -3.877,3.61 -4.42,3.271 -4.723,2.769 L -7.889,2.771 L -7.891,3.714 C -7.891,4.067 -7.605,4.354 -7.252,4.354 M -6.82,4.656 L -6.232,4.656 L -6.184,4.444 L -6.889,4.444 L -6.82,4.656 z M -4.902,5.013 L -3,5.013 L -2.641,4.438 L -5.295,4.438 L -4.902,5.013 z M -1.713,4.77 L -0.93,4.77 L -0.803,4.442 L -1.852,4.442 L -1.713,4.77 z M -0.182,7.127 L -7.709,7.127 C -8.361,7.127 -8.891,6.598 -8.891,5.945 L -8.891,-1.583 C -8.891,-2.235 -8.361,-2.765 -7.709,-2.765 L -0.182,-2.765 C 0.471,-2.765 1,-2.235 1,-1.583 L 1,5.945 C 1,6.598 0.471,7.127 -0.182,7.127"
         style="fill:#000000;fill-opacity:1;fill-rule:nonzero;stroke:none"
         id="path3128" />
    </g>
  </g>
</svg>
